Icons/TM_Icons/more icons/postmail.svg

<?xml version='1.0' encoding='utf-8'?>
<ns0:svg xmlns:ns0="http://www.w3.org/2000/svg" version="1.1" viewBox="173.0 -247.0 1974.0 1974.0" role="img" focusable="false" preserveAspectRatio="xMidYMid meet">
   <ns0:path fill="currentColor" d="M878 60l-656 -656v1312zM1407 95l-177 176c-19.3301 20 -42.6699 30 -70 30s-51 -10 -71 -30l-176 -176l-656 656h1805zM1442 60l655 656v-1312zM257 -631l868 868c9.33984 9.33984 21 14.0059 35 14c14 0 25.6699 -4.66699 35 -14l868 -868h-1806zM173 -680h1974v1480 h-1974v-1480z" />
</ns0:svg>

<svg xmlns="http://www.w3.org/2000/svg" width="400" height="200" viewBox="-320 -680 2960 1480"><path fill="currentColor" d="M878 60 222-596V716zm529 35-177 176c-19.33 20-42.67 30-70 30s-51-10-71-30L913 95 257 751h1805zm35-35 655 656V-596zM257-631l868 868c9.34 9.34 21 14.006 35 14 14 0 25.67-4.667 35-14l868-868zm-84-49h1974V800H173z"/></svg>
